X: 21588
T: Killaloe, The
R: polka
M: 2/4
K: Dmajor
AD F/E/D/F/|A/B/A/F/ EF/G/|AD G/F/E/D/|CE EF/G/|
AD F/E/D/F/|A/B/A/F/ Ed|cd e/f/e/c/|1 Ad d2:|2 Ad d|:
A|df fe/d/|ce e>A|df fe/d/|ce B>c|
df fe/d/|ce e>d|cd e/f/e/c/|Ad d:|

